svg/color/biduon.svg

<svg width="40" height="40" viewBox="0 0 40 40" fill="none" xmlns="http://www.w3.org/2000/svg">
<g clip-path="url(#clip0_820_3796)">
<path d="M20 0C31.0457 0 40 8.9543 40 20C40 31.0457 31.0457 40 20 40C8.95431 40 7.90517e-06 31.0457 0 20C6.58765e-07 8.95431 8.95431 1.97595e-06 20 0Z" fill="#D4D6F9"/>
<path d="M26 6C30.4183 6 34 9.58172 34 14V26C34 30.4183 30.4183 34 26 34H14C9.58172 34 6 30.4183 6 26V14C6 9.58172 9.58172 6 14 6H26Z" fill="#2932E1"/>
<g clip-path="url(#clip1_820_3796)">
<path d="M17.6278 10C16.4244 10 15.4494 11.3817 15.4494 13.0892C15.4494 14.7983 16.4253 16.1808 17.6286 16.1808C18.8336 16.1808 19.8069 14.7983 19.8069 13.0892C19.8061 11.3817 18.8328 10 17.6278 10ZM23.4819 10.495C22.3828 10.4833 21.1219 12.1575 20.9994 13.2725C20.8436 14.7267 21.2078 16.1783 22.8153 16.385C24.4261 16.5933 25.4611 14.88 25.6669 13.5817C25.8769 12.2858 24.8378 10.7783 23.6986 10.52C23.6272 10.5038 23.5543 10.4955 23.4811 10.495H23.4819ZM12.9844 14.6125C12.9411 14.6135 12.8977 14.6157 12.8544 14.6192C11.0894 14.7775 10.8311 17.3192 10.8311 17.3192C10.5919 18.4942 11.4028 21.0067 13.5786 20.5392C15.7594 20.0717 15.4636 17.4725 15.3978 16.9042C15.2936 16.0558 14.3211 14.5933 12.9844 14.6125ZM26.7628 16.0733C24.8394 16.0733 24.5819 17.8392 24.5819 19.0867C24.5819 20.2783 24.6828 21.9408 27.0719 21.8883C29.4611 21.8358 29.1994 19.19 29.1994 18.565C29.1994 17.9442 28.6828 16.0733 26.7628 16.0733ZM19.8761 18.1383C18.6894 18.15 17.6194 18.9092 17.1069 19.7608C16.1753 21.3175 14.7211 22.3025 14.5136 22.5633C14.3053 22.8208 11.5053 24.3267 12.1269 27.08C12.7486 29.8308 14.9311 29.7775 14.9311 29.7775C14.9311 29.7775 16.5394 29.9358 18.4069 29.5192C20.2736 29.1067 21.8819 29.6217 21.8819 29.6217C21.8819 29.6217 26.2428 31.0783 27.4361 28.275C28.6278 25.4717 26.7628 24.0175 26.7628 24.0175C26.7628 24.0175 24.2711 22.0958 22.8161 20.0192C21.9228 18.6317 20.8594 18.1292 19.8761 18.1383ZM18.0144 21.3383L19.2994 21.3583V28.1892H16.4644C15.2394 27.9467 14.7519 27.1125 14.6894 26.9708C14.6294 26.8267 14.2828 26.1575 14.4661 25.0183C14.9953 23.3108 16.5053 23.1883 16.5053 23.1883H18.0136L18.0144 21.3383ZM21.3178 23.33V26.5642C21.3978 26.9083 21.8278 26.9708 21.8278 26.9708H23.1728V23.3517H24.5803V28.17H21.3178C20.0536 27.845 19.9928 26.9492 19.9928 26.9492V23.3517L21.3178 23.33ZM16.7694 24.2858C16.2194 24.45 15.9544 24.8758 15.8944 25.0592C15.8311 25.2425 15.6886 25.7092 15.8111 26.1167C16.0561 27.0292 16.8511 27.07 16.8511 27.07H17.9928V24.2867L16.7694 24.2858Z" fill="white"/>
</g>
</g>
<defs>
<clipPath id="clip0_820_3796">
<rect width="40" height="40" fill="white"/>
</clipPath>
<clipPath id="clip1_820_3796">
<rect width="20" height="20" fill="white" transform="translate(10 10)"/>
</clipPath>
</defs>
</svg>

<svg xmlns="http://www.w3.org/2000/svg" width="40" height="40" fill="none" viewBox="0 0 40 40"><g clip-path="url(#biduon_svg-a)"><path fill="#D4D6F9" d="M20 0c11.046 0 20 8.954 20 20s-8.954 20-20 20S0 31.046 0 20 8.954 0 20 0"/><path fill="#2932E1" d="M26 6a8 8 0 0 1 8 8v12a8 8 0 0 1-8 8H14a8 8 0 0 1-8-8V14a8 8 0 0 1 8-8z"/><g clip-path="url(#biduon_svg-b)"><path fill="#fff" d="M17.628 10c-1.204 0-2.179 1.382-2.179 3.09s.976 3.09 2.18 3.09 2.178-1.382 2.178-3.09-.974-3.09-2.18-3.09m5.854.495c-1.1-.012-2.36 1.663-2.483 2.778-.155 1.454.209 2.905 1.816 3.112 1.611.208 2.646-1.505 2.852-2.803.21-1.296-.83-2.804-1.968-3.062a1 1 0 0 0-.218-.025m-10.498 4.118-.13.006c-1.765.159-2.023 2.7-2.023 2.7-.24 1.175.572 3.688 2.748 3.22 2.18-.467 1.885-3.067 1.819-3.635-.104-.848-1.077-2.31-2.414-2.291m13.779 1.46c-1.924 0-2.181 1.766-2.181 3.014 0 1.191.1 2.854 2.49 2.801s2.127-2.698 2.127-3.323c0-.62-.516-2.492-2.436-2.492m-6.887 2.065c-1.187.012-2.257.771-2.77 1.623-.93 1.556-2.385 2.541-2.592 2.802-.209.258-3.009 1.764-2.387 4.517.622 2.75 2.804 2.698 2.804 2.698s1.608.158 3.476-.259c1.867-.412 3.475.103 3.475.103s4.36 1.456 5.554-1.347c1.192-2.803-.673-4.257-.673-4.257s-2.492-1.922-3.947-3.999c-.893-1.387-1.957-1.89-2.94-1.88m-1.862 3.2 1.285.02v6.831h-2.835c-1.225-.242-1.712-1.076-1.775-1.218-.06-.144-.406-.814-.223-1.953.53-1.707 2.04-1.83 2.04-1.83h1.508zm3.304 1.992v3.234c.08.344.51.407.51.407h1.345v-3.62h1.407v4.819h-3.262c-1.264-.325-1.325-1.22-1.325-1.22v-3.598zm-4.549.956c-.55.164-.815.59-.875.773-.063.183-.205.65-.083 1.058.245.912 1.04.953 1.04.953h1.142v-2.783z"/></g></g><defs><clipPath id="biduon_svg-a"><path fill="#fff" d="M0 0h40v40H0z"/></clipPath><clipPath id="biduon_svg-b"><path fill="#fff" d="M10 10h20v20H10z"/></clipPath></defs></svg>
